assets/img/hr/fancy-hr-head-right.svg

<svg xmlns="http://www.w3.org/2000/svg" width="100%" height="100%" viewBox="0 0 200 110" preserveAspectRatio="xMinYMid" >
    <g id="hr-head-right"><path fill="#FFFFFF" d="M129.868+35.0688C114.392+34.7964+112.899+50.5999+112.899+50.6C112.899+50.6+117.632+43.9531+124.118+43.725C130.538+43.4992+133.688+46.3453+133.774+51.1625C133.899+58.1711+129.098+61.4255+121.149+61.4125C114.296+61.4013+108.167+56.9121+101.783+52.1217C94.5904+46.7239+87.0748+40.9436+77.8367+40.7563C53.4604+40.2623+43.3054+55.5063+43.3055+55.5063C43.3055+55.5063+55.2301+47.0162+69.368+46.8813C94.1094+46.6457+101.679+71.0721+121.399+70.8188C138.748+70.596+144.662+60.1357+144.868+51.6625C145.082+42.8533+137.516+35.2035+129.868+35.0688ZM102.367+66.3345C102.367+66.3345+85.3785+78.6023+53.9126+65.3847C39.4104+59.2928+25.3669+47.5845+25.3669+47.5845C25.3669+47.5846+48.9093+76.7215+75.9295+77.397C97.9038+77.9465+102.367+66.3345+102.367+66.3345M0+30C20+30+62.6446+30.9323+90.8032+27.0732C125.317+22.3431+140.126+10+140.126+10C140.126+9.99994+149.17+27.455+164.17+39.955C179.17+52.455+200.126+60+200.126+60C200.126+59.9999+169.12+65.5364+147.111+78.8808C124.149+92.8024+110.126+110+110.126+110C110.126+110+89.6331+94.8664+62.0437+87.7023C37.6091+81.3574+20+80+0+80L0+30Z" opacity="1"/></g>
</svg>

<svg xmlns="http://www.w3.org/2000/svg" width="100%" height="100%" viewBox="0 0 200 110" preserveAspectRatio="xMinYMid"><path fill="#FFF" d="M129.868 35.069c-15.476-.273-16.969 15.53-16.969 15.531 0 0 4.733-6.647 11.219-6.875 6.42-.226 9.57 2.62 9.656 7.438.125 7.008-4.676 10.263-12.625 10.25-6.853-.012-12.982-4.5-19.366-9.291-7.193-5.398-14.708-11.178-23.946-11.366-24.377-.494-34.532 14.75-34.532 14.75s11.925-8.49 26.063-8.625c24.741-.235 32.311 24.191 52.031 23.938 17.349-.223 23.263-10.683 23.469-19.157.214-8.809-7.352-16.459-15-16.593zm-27.501 31.266s-16.989 12.267-48.454-.95c-14.503-6.092-28.546-17.8-28.546-17.8S48.909 76.721 75.93 77.397c21.974.55 26.437-11.063 26.437-11.063M0 30c20 0 62.645.932 90.803-2.927C125.317 22.343 140.126 10 140.126 10s9.044 17.455 24.044 29.955S200.126 60 200.126 60s-31.006 5.536-53.015 18.88C124.149 92.803 110.126 110 110.126 110S89.633 94.866 62.044 87.702C37.609 81.357 20 80 0 80V30z"/></svg>
